assets/images/icons/icn-lifesaver.svg

<svg xmlns="http://www.w3.org/2000/svg" preserveAspectRatio="xMidYMid" width="36" height="36" viewBox="0 0 36 36"><defs><style>.cls-3{fill:#e9eaeb}.cls-4{fill:#d3d6d7}</style></defs><g id="icn-lifesaversvg"><path d="M23.243 8.515l4.242-5.071 6.071 6.071-6.071 3.242-4.242-4.242zM2.444 26.485l7.071-4.242 4.242 4.242-4.242 7.071-7.071-7.071zm0-16.97l7.071-7.071 4.242 7.071-4.242 4.242-7.071-4.242zm31.112 16.97l-7.071 7.071-3.242-6.071 4.242-4.242 6.071 3.242z" id="path-1" class="cls-3" fill-rule="evenodd"/><path d="M18 36C8.059 36 0 27.941 0 18S8.059 0 18 0s18 8.059 18 18-8.059 18-18 18zm0-34C9.163 2 2 9.164 2 18s7.163 16 16 16 16-7.164 16-16S26.837 2 18 2zm0 27c-6.075 0-11-4.925-11-11S11.925 7 18 7s11 4.925 11 11-4.925 11-11 11zm0-20a9 9 0 1 0 0 18 9 9 0 0 0 0-18z" id="path-2" class="cls-4" fill-rule="evenodd"/></g></svg>

<svg xmlns="http://www.w3.org/2000/svg" xmlns:xlink="http://www.w3.org/1999/xlink" preserveAspectRatio="xMidYMid" width="36" height="36" viewBox="0 0 36 36">
  <defs>
    <style>

      .cls-3 {
        fill: #e9eaeb;
      }

      .cls-4 {
        fill: #d3d6d7;
      }
    </style>
  </defs>
  <g id="icn-lifesaversvg">
    <path d="M23.243,8.515 C23.243,8.515 27.485,3.444 27.485,3.444 C27.485,3.444 33.556,9.515 33.556,9.515 C33.556,9.515 27.485,12.757 27.485,12.757 C27.485,12.757 23.243,8.515 23.243,8.515 ZM2.444,26.485 C2.444,26.485 9.515,22.243 9.515,22.243 C9.515,22.243 13.757,26.485 13.757,26.485 C13.757,26.485 9.515,33.556 9.515,33.556 C9.515,33.556 2.444,26.485 2.444,26.485 ZM2.444,9.515 C2.444,9.515 9.515,2.444 9.515,2.444 C9.515,2.444 13.757,9.515 13.757,9.515 C13.757,9.515 9.515,13.757 9.515,13.757 C9.515,13.757 2.444,9.515 2.444,9.515 ZM33.556,26.485 C33.556,26.485 26.485,33.556 26.485,33.556 C26.485,33.556 23.243,27.485 23.243,27.485 C23.243,27.485 27.485,23.243 27.485,23.243 C27.485,23.243 33.556,26.485 33.556,26.485 Z" id="path-1" class="cls-3" fill-rule="evenodd"/>
    <path d="M18.000,36.000 C8.059,36.000 0.000,27.941 0.000,18.000 C0.000,8.059 8.059,-0.000 18.000,-0.000 C27.941,-0.000 36.000,8.059 36.000,18.000 C36.000,27.941 27.941,36.000 18.000,36.000 ZM18.000,2.000 C9.163,2.000 2.000,9.164 2.000,18.000 C2.000,26.836 9.163,34.000 18.000,34.000 C26.837,34.000 34.000,26.836 34.000,18.000 C34.000,9.164 26.837,2.000 18.000,2.000 ZM18.000,29.000 C11.925,29.000 7.000,24.075 7.000,18.000 C7.000,11.925 11.925,7.000 18.000,7.000 C24.075,7.000 29.000,11.925 29.000,18.000 C29.000,24.075 24.075,29.000 18.000,29.000 ZM18.000,9.000 C13.029,9.000 9.000,13.029 9.000,18.000 C9.000,22.970 13.029,27.000 18.000,27.000 C22.971,27.000 27.000,22.970 27.000,18.000 C27.000,13.029 22.971,9.000 18.000,9.000 Z" id="path-2" class="cls-4" fill-rule="evenodd"/>
  </g>
</svg>
